packages/icons/web/american_express_large.svg

<svg width="24" height="24" viewBox="0 0 24 24" fill="none" xmlns="http://www.w3.org/2000/svg">
<path d="M21.0489 16.5912H19.5108V16.5046C19.3295 16.5912 19.1491 16.5912 18.9678 16.5912H14.262V15.8118H14.1721V16.5912H12.6332V15.7252C12.37 15.8105 12.0951 15.8543 11.8184 15.8551H11.6836V16.5912H9.87284C9.87284 16.5912 9.60175 16.2881 9.42053 16.1149C9.28498 16.2881 8.96821 16.5912 8.96821 16.5912H6.11727V13.431H9.01314C9.01314 13.431 9.32991 13.7774 9.51114 13.9506C9.69236 13.7774 10.0084 13.431 10.0084 13.431H12.0902C12.1801 13.431 12.407 13.431 12.6332 13.5176V13.431H14.5338C14.6237 13.431 14.8506 13.431 15.1217 13.5176V13.431H17.9269V13.5176C18.1987 13.431 18.4249 13.431 18.4698 13.431H20.0537V13.5176C20.3255 13.431 20.5517 13.431 20.5966 13.431H21.7274V3H2.04493V11.0942L2.72415 9.57871H4.17172L4.35294 9.96842V9.57871H6.07234C6.07234 9.57871 6.34343 10.1416 6.43404 10.4014C6.56959 10.1416 6.7965 9.57871 6.7965 9.57871H12.0902C12.1801 9.57871 12.407 9.57872 12.6781 9.66532V9.57871H14.217V9.75192C14.4432 9.62202 14.7143 9.53541 14.9404 9.53541C14.9404 9.53541 15.7552 9.53541 15.8001 9.57871H17.2484C17.2484 9.57871 17.384 9.92512 17.4297 9.96842V9.57871H19.0128C19.0128 9.57871 19.2389 9.92512 19.2846 9.96842V9.57871H20.8228V12.7389H19.2846C19.2846 12.7389 19.0584 12.3925 19.0128 12.3059V12.7389H17.0672C17.0672 12.7389 16.8867 12.3492 16.8411 12.2626H16.3431C16.2981 12.3492 16.1169 12.7389 16.1169 12.7389H14.8056C14.6244 12.7389 14.4439 12.6523 14.2627 12.5657V12.7822H11.8191V12.0028H11.7293V12.7822H6.97622C6.97622 12.7389 5.84543 12.7822 5.84543 12.7822C5.84543 12.7822 5.84543 12.7389 5.8005 12.7389L3.8542 12.7822C3.8542 12.7822 3.67297 12.3925 3.62804 12.3059H3.13079C3.08586 12.4358 2.90463 12.7822 2.90463 12.7822H2V21.4819H21.6825V16.5046C21.5926 16.5479 21.3657 16.5912 21.1395 16.5912H21.0497H21.0489Z" fill="#0087B1"/>
<path d="M12.3613 12.2619V11.8297C12.3613 11.8297 12.3164 11.4832 11.9547 11.4832H11.3661V12.2627H10.7782V9.96847H12.2715C12.2715 9.96847 13.0405 9.88187 13.0405 10.6613C13.0405 11.051 12.6781 11.1801 12.6781 11.1801C12.6781 11.1801 12.9949 11.31 12.9949 11.6998V12.2627H12.3613V12.2619ZM11.3661 10.9211H11.9996C12.1808 10.9211 12.3164 10.8345 12.3164 10.7046C12.3164 10.5747 12.1808 10.4881 11.9996 10.4881H11.3661V10.9211ZM19.6014 12.2619L18.6511 10.7046V12.2627H17.4297L17.2027 11.7864H16.072L15.8458 12.2627H14.9404C14.9404 12.2627 14.1264 12.1328 14.1264 11.1801C14.1264 9.88187 15.0767 9.96847 15.0767 9.92592H15.8458V10.4448H15.2123C15.2123 10.4448 14.8049 10.4448 14.7599 10.9644V11.1376C14.7599 11.9163 15.4833 11.6565 15.4833 11.6565L16.2532 9.92517H17.1129L18.0175 12.0029V9.92517H18.8772L19.8275 11.4407V9.92517H20.4611V12.2194H19.6014V12.2619ZM16.3438 11.2234H16.9317L16.6598 10.5314L16.343 11.2234H16.3438ZM7.56557 12.2619V10.662L6.79648 12.2634H6.29849L5.5294 10.6613V12.2627H4.3065L4.08034 11.7864H2.95105L2.72489 12.2627H2.04492L3.04092 9.96847H3.90061L4.85018 12.0902V9.96996H5.80124L6.47971 11.3974L7.15819 9.96922H8.1085V12.2634H7.56557V12.2619ZM3.26707 11.2242H3.85493L3.53816 10.5321L3.26707 11.2242ZM8.56082 12.2619V9.96922H10.4614V10.5321H9.14868V10.8785H10.4158V11.3974H9.14868V11.7871H10.4614V12.2634H8.56007L8.56082 12.2619ZM13.2667 12.2619V9.96922H13.9002V12.2634H13.2667V12.2619ZM14.7143 16.1582V15.7252C14.7143 15.7252 14.6693 15.3788 14.3076 15.3788H13.719V16.1582H13.0855V13.864H14.5787C14.5787 13.864 15.3478 13.7774 15.3478 14.5568C15.3478 14.9466 14.9861 15.0757 14.9861 15.0757C14.9861 15.0757 15.2572 15.2056 15.2572 15.5953V16.1582H14.7143ZM13.719 14.8592H14.3526C14.5338 14.8592 14.6693 14.7734 14.6693 14.6427C14.6693 14.5135 14.5338 14.4262 14.3526 14.4262H13.719V14.8592ZM10.6419 16.1582H10.099L9.46545 15.4654L8.83191 16.1582H6.56958V13.864H8.78697L9.46545 14.6001L10.1896 13.864H12.1352C12.1352 13.864 12.9042 13.7774 12.9042 14.5568C12.9042 15.2489 12.6332 15.4654 11.8633 15.4654H11.2755V16.2015H10.6419V16.1582ZM9.91851 15.0324L10.6876 15.8551V14.2537L9.91851 15.0324ZM7.15819 15.6819H8.42527L9.01313 15.0324L8.42527 14.3829H7.15819V14.7301H8.42527V15.2489H7.15819V15.6819ZM11.2755 14.8159H11.909C12.0902 14.8159 12.2258 14.7301 12.2258 14.5994C12.2258 14.4702 12.0902 14.3829 11.909 14.3829H11.2755V14.8159ZM18.8772 16.1582H17.7914V15.6386H18.7417C18.7417 15.6386 19.1034 15.6819 19.1034 15.4654C19.1034 15.2489 18.6061 15.2922 18.6061 15.2922C18.6061 15.2922 17.7464 15.3788 17.7464 14.6001C17.7464 13.864 18.5155 13.9073 18.5155 13.9073H19.6912V14.4269H18.7417C18.7417 14.4269 18.4249 14.3836 18.4249 14.6001C18.4249 14.7734 18.8772 14.7734 18.8772 14.7734C18.8772 14.7734 19.8275 14.6868 19.8275 15.3788C19.8275 16.1149 19.2389 16.2015 19.0128 16.2015C18.9229 16.1582 18.878 16.1582 18.878 16.1582H18.8772ZM15.6196 16.1582V13.864H17.5195V14.4269H16.2532V14.7734H17.5195V15.2922H16.2532V15.6819H17.5195V16.1582H15.6196ZM21.0489 16.1582H19.9631V15.6386H20.9141C20.9141 15.6386 21.2751 15.6819 21.2751 15.4654C21.2751 15.2489 20.7778 15.2922 20.7778 15.2922C20.7778 15.2922 19.9181 15.3788 19.9181 14.6001C19.9181 13.864 20.6872 13.9073 20.6872 13.9073H21.8629V14.4269H20.9134C20.9134 14.4269 20.5966 14.3836 20.5966 14.6001C20.5966 14.7734 21.0489 14.7734 21.0489 14.7734C21.0489 14.7734 22 14.6868 22 15.3788C22 16.1149 21.4114 16.2015 21.1852 16.2015C21.0946 16.1582 21.0489 16.1582 21.0489 16.1582Z" fill="#0087B1"/>
</svg>

<svg width="24" height="24" fill="none" xmlns="http://www.w3.org/2000/svg">
    <path d="M21.049 16.591H19.51v-.086c-.181.086-.362.086-.543.086h-4.706v-.78h-.09v.78h-1.539v-.866c-.263.085-.538.13-.815.13h-.134v.736h-1.81s-.271-.303-.452-.476a6.432 6.432 0 01-.453.476h-2.85v-3.16h2.895s.317.346.498.52c.181-.174.497-.52.497-.52h2.082c.09 0 .317 0 .543.087v-.087h1.9c.09 0 .318 0 .589.087v-.087h2.805v.087c.272-.087.498-.087.543-.087h1.584v.087c.272-.087.498-.087.543-.087h1.13V3H2.045v8.094l.68-1.515h1.447l.18.39v-.39h1.72s.271.563.362.822c.136-.26.362-.822.362-.822h5.294c.09 0 .317 0 .588.086V9.58h1.539v.173c.226-.13.497-.217.723-.217 0 0 .815 0 .86.044h1.448s.136.346.182.39v-.39h1.583s.226.346.272.39v-.39h1.538v3.16h-1.538s-.227-.347-.272-.433v.433h-1.946s-.18-.39-.226-.476h-.498c-.045.086-.226.476-.226.476h-1.311c-.182 0-.362-.087-.543-.173v.216h-2.444v-.78h-.09v.78H6.976c0-.043-1.13 0-1.13 0s0-.043-.045-.043l-1.947.043s-.181-.39-.226-.476h-.497c-.045.13-.226.476-.226.476H2v8.7h19.683v-4.977c-.09.043-.317.086-.543.086h-.091z" fill="#0087B1"/>
    <path d="M12.361 12.262v-.432s-.045-.347-.406-.347h-.589v.78h-.588V9.968h1.493s.77-.086.77.693c0 .39-.363.52-.363.52s.317.129.317.519v.563h-.634v-.001zm-.995-1.34H12c.18 0 .316-.088.316-.217 0-.13-.135-.217-.316-.217h-.634v.433zm8.235 1.34l-.95-1.557v1.558H17.43l-.227-.477h-1.131l-.226.477h-.906s-.814-.13-.814-1.083c0-1.298.95-1.212.95-1.254h.77v.519h-.634s-.407 0-.452.52v.173c0 .778.723.518.723.518l.77-1.73h.86l.904 2.077V9.925h.86l.95 1.516V9.925h.634v2.294h-.86v.043zm-3.257-1.039h.588l-.272-.692-.317.692zm-8.778 1.039v-1.6l-.77 1.601h-.498l-.769-1.602v1.602H4.306l-.226-.477H2.951l-.226.477h-.68l.996-2.295h.86l.95 2.122V9.97h.95l.679 1.427.678-1.428h.95v2.294h-.542v-.001zm-4.299-1.038h.588l-.317-.692-.27.692zm5.294 1.038V9.969h1.9v.563H9.15v.347h1.267v.518H9.149v.39h1.312v.476h-1.9v-.001zm4.706 0V9.969h.633v2.294h-.633v-.001zm1.447 3.896v-.433s-.045-.346-.406-.346h-.589v.78h-.633v-2.295h1.493s.769-.087.769.693c0 .39-.362.519-.362.519s.271.13.271.52v.562h-.543zm-.995-1.299h.634c.18 0 .316-.086.316-.216s-.135-.217-.316-.217h-.634v.433zm-3.077 1.3h-.543l-.634-.694-.633.693H6.57v-2.294h2.217l.678.736.725-.736h1.945s.77-.087.77.693c0 .692-.272.908-1.042.908h-.588v.736h-.633v-.043zm-.723-1.127l.769.823v-1.601l-.77.778zm-2.76.65h1.266l.588-.65-.588-.65H7.158v.348h1.267v.519H7.158v.433zm4.116-.866h.634c.181 0 .317-.086.317-.217 0-.129-.136-.216-.317-.216h-.634v.433zm7.602 1.342h-1.086v-.52h.95s.362.044.362-.173c0-.216-.497-.173-.497-.173s-.86.087-.86-.692c0-.736.77-.693.77-.693h1.175v.52h-.95s-.316-.043-.316.173c0 .173.452.173.452.173s.95-.086.95.606c0 .736-.588.822-.814.822-.09-.043-.135-.043-.135-.043zm-3.257 0v-2.294h1.9v.563h-1.267v.346h1.267v.52h-1.267v.389h1.267v.476h-1.9zm5.429 0h-1.086v-.52h.951s.361.044.361-.173c0-.216-.497-.173-.497-.173s-.86.087-.86-.692c0-.736.77-.693.77-.693h1.175v.52h-.95s-.316-.043-.316.173c0 .173.452.173.452.173s.951-.086.951.606c0 .736-.589.822-.815.822-.09-.043-.136-.043-.136-.043z" fill="#0087B1"/>
</svg>
